src/assets/images/eyes/18.svg

<svg width="32" height="32" viewBox="0 0 32 32" fill="none" xmlns="http://www.w3.org/2000/svg">
<path fill-rule="evenodd" clip-rule="evenodd" d="M6 13.5C6 13.331 6.00932 13.1642 6.02746 13H14.9725C14.9907 13.1642 15 13.331 15 13.5C15 15.9853 12.9853 18 10.5 18C8.01472 18 6 15.9853 6 13.5ZM17 13.5C17 13.331 17.0093 13.1642 17.0275 13H25.9725C25.9907 13.1642 26 13.331 26 13.5C26 15.9853 23.9853 18 21.5 18C19.0147 18 17 15.9853 17 13.5Z" fill="white"/>
<path fill-rule="evenodd" clip-rule="evenodd" d="M10 13.25C10 13.1655 10.0046 13.0821 10.0137 13H14.4863C14.4954 13.0821 14.5 13.1655 14.5 13.25C14.5 14.4945 13.4945 15.5 12.25 15.5C11.0055 15.49 10 14.4845 10 13.25ZM21 13.25C21 13.1655 21.0046 13.0821 21.0137 13H25.4863C25.4954 13.0821 25.5 13.1655 25.5 13.25C25.5 14.4945 24.4945 15.5 23.25 15.5C22.0055 15.49 21 14.4845 21 13.25Z" fill="url(#paint0_linear_934_446)"/>
<defs>
<linearGradient id="paint0_linear_934_446" x1="23.7115" y1="13" x2="23.4986" y2="15.5748" gradientUnits="userSpaceOnUse">
<stop stop-color="#553B3E"/>
<stop offset="1" stop-color="#3D2432"/>
</linearGradient>
</defs>
</svg>

<svg width="32" height="32" fill="none" xmlns="http://www.w3.org/2000/svg"><path fill-rule="evenodd" clip-rule="evenodd" d="M6 13.5c0-.169.01-.336.027-.5h8.945A4.5 4.5 0 1 1 6 13.5zm11 0c0-.169.01-.336.027-.5h8.945a4.5 4.5 0 1 1-8.973.5z" fill="#fff"/><path fill-rule="evenodd" clip-rule="evenodd" d="M10 13.25c0-.085.005-.168.014-.25h4.472a2.248 2.248 0 0 1-2.236 2.5A2.26 2.26 0 0 1 10 13.25zm11 0c0-.085.005-.168.014-.25h4.472a2.248 2.248 0 0 1-2.236 2.5A2.26 2.26 0 0 1 21 13.25z" fill="url(#a)"/><defs><linearGradient id="a" x1="23.712" y1="13" x2="23.499" y2="15.575" gradientUnits="userSpaceOnUse"><stop stop-color="#553B3E"/><stop offset="1" stop-color="#3D2432"/></linearGradient></defs></svg>
